svg/ionicons/binoculars.svg

<svg width="512" height="512" viewBox="0 0 512 512" xmlns="http://www.w3.org/2000/svg">
<path fill-rule="evenodd" clip-rule="evenodd" d="M114.917 82.8311C126.817 70.7578 142.711 64 164 64C182.436 64 197.934 71.239 208.611 83.6068C219.057 95.7067 224 111.638 224 128V162.809C232.45 161.226 243.147 160 256 160C268.853 160 279.55 161.226 288 162.809V128C288 111.638 292.943 95.7067 303.389 83.6068C314.066 71.239 329.564 64 348 64C369.289 64 385.183 70.7578 397.083 82.8311C408.155 94.0643 414.629 108.867 419.875 122.106L420.511 123.778L488.718 305.693C488.718 305.693 491.308 313 491.633 314.085C494.474 323.559 496 333.601 496 344C496 401.438 449.438 448 392 448C334.562 448 288 401.438 288 344C288 343.962 288 343.924 288 343.886V283.539C287.987 283.536 287.974 283.533 287.96 283.529C281.089 281.825 270.382 280 256 280C241.618 280 230.911 281.825 224.04 283.529L224 283.539V344C224 401.438 177.438 448 120 448C62.5624 448 16 401.438 16 344C16 333.601 17.5262 323.559 20.3669 314.084C20.5192 313.392 20.7194 312.701 20.9692 312.016C21.5537 310.277 22.6101 307.388 23.2827 305.692L92.1251 122.106C97.3707 108.867 103.846 94.0643 114.917 82.8311ZM320 343.905C320.051 304.184 352.267 272 392 272C422.372 272 448.352 290.806 458.93 317.408C459.392 318.668 459.845 319.905 460.288 321.118C462.696 328.307 464 336.001 464 344C464 383.764 431.764 416 392 416C352.249 416 320.022 383.786 320 344.04C320 344.027 320 344.013 320 344M120 272C89.6287 272 63.6495 290.805 53.0706 317.406C52.6085 318.667 52.1552 319.906 51.7115 321.12C49.3042 328.308 48 336.002 48 344C48 383.764 80.2355 416 120 416C159.764 416 192 383.764 192 344C192 304.236 159.764 272 120 272Z" />
</svg>

<svg xmlns="http://www.w3.org/2000/svg" width="512" height="512" viewBox="0 0 512 512"><path fill-rule="evenodd" d="M114.917 82.831C126.817 70.758 142.711 64 164 64c18.436 0 33.934 7.239 44.611 19.607C219.057 95.707 224 111.638 224 128v34.809c8.45-1.583 19.147-2.809 32-2.809s23.55 1.226 32 2.809V128c0-16.362 4.943-32.293 15.389-44.393C314.066 71.239 329.564 64 348 64c21.289 0 37.183 6.758 49.083 18.831 11.072 11.233 17.546 26.036 22.792 39.275l.636 1.672 68.207 181.915s2.59 7.307 2.915 8.392A104 104 0 01496 344c0 57.438-46.562 104-104 104s-104-46.562-104-104v-60.461l-.04-.01C281.089 281.825 270.382 280 256 280s-25.089 1.825-31.96 3.529l-.04.01V344c0 57.438-46.562 104-104 104S16 401.438 16 344c0-10.399 1.526-20.441 4.367-29.916q.227-1.04.602-2.068a155 155 0 012.314-6.324l68.842-183.586c5.246-13.239 11.721-28.042 22.792-39.275M320 343.905c.051-39.721 32.267-71.905 72-71.905 30.372 0 56.352 18.806 66.93 45.408l1.358 3.71A71.9 71.9 0 01464 344c0 39.764-32.236 72-72 72-39.751 0-71.978-32.214-72-71.96V344m-200-72c-30.371 0-56.35 18.805-66.93 45.406l-1.358 3.714A71.9 71.9 0 0048 344c0 39.764 32.236 72 72 72s72-32.236 72-72-32.236-72-72-72" clip-rule="evenodd"/></svg>
